X: 25880
T: Matt Nugent's Favourite
R: jig
M: 6/8
K: Gmajor
gfe|:d2B BAG|EDE G2A|B3 edB|gdB AB/^c/d|
edB BAG|EDE G2A|~B3 dBA|1 AGF G2B:|2 AGF G2d||
|:~g3 fed|~B3 def|gfe fed|Bed e2f|
~g3 fed|~B3 def|gfg aga|1 bgf g2f:|2 bgf gfe||

